X: 1
T: Freylekhs fun der Khupe    [Cm]
O: 1920s recording
R: freilach
S: handout as Watertown Klezmer jam
Z: 2020 John Chambers <jc:trillian.mit.edu>
M: 4/4
L: 1/8
K: Cm
"^A"|:\
"Cm"C4 DE^FE | ^F2G2 G2G2 | B=AG2 G^FE2 | G^FE2 EDDC |\
[1,3 "Cm"C4 DE^FE | ^F2G2 G2G2 |
c6 G2 | c2B2=A2G2 :|\
[2,4 "Cm"B=ABA BAG2 | cBA2 G^FE2 | "G7"GFE2 EDC2 | "Cm"C8 :|
"^B"::\
"Cm"c6 G2 | c6 G2 | c2G2 c2G2 | c2G2 c2G2 |\
"Cm"c2B2 =A2G2 | ^F3E FEDC | c2B2 =A2G2 | ^F2 G6 |
"Cm"c2B2 =A2G2 | ^F3E FEDC |\
"G"d2d2 edc=B |[1 "Dm"c4 zG^FG :|[2 "Cm"c8 [K:=e=A][K:Cmix]\
"^C"|:\
"C"E2G2 GFFE |
E2G2 GFFE | G^FGA BAGF | G4 c4 |\
"C"E2G2 GFFE | "F(m)"F6 ^F2 | "G7"G^FF_E EDDC | "Cm"C8 :|

